X: 44
T: Venus tu m'a pris
N: Derived from Ort3009-Venus_tu_ma_pris.krn
C: Marbrianus de Orto
%%abc-version 2.0
%%abcx-abcm2ps-target-version 5.9.1 (29 Sep 2008)
%%abc-creator hum2abc beta
%%abcx-conversion-date 2019/02/17 07:28:38
%%abc-edited-by Jesse Rodin
%%abc-edited-by Jesse Rodin 8/6/2013
%%abcx-initial-encoding-date 2013/08/06/
%%humdrum-veritas 2502867932
%%humdrum-veritas-data 155677920
%%linebreak <none>
%%barnumbers 0
L: 1/4
M: 2/1
Q: 1/2=120
V: 1 clef=treble
V: 2 clef=treble-8
V: 3 clef=bass
K: Bb
[V:1] z8 | 
[V:2] c8 | 
[V:3] C,6D,2 | 
[V:1] z8 | 
[V:2] B4c4- | 
[V:3] E,8 | 
[V:1] z8 | 
[V:2] c2B2A4 | 
[V:3] F,8 | 
[V:1] z8 | 
[V:2] G4A2B2- | 
[V:3] E,4D,4 | 
[V:1] z8 | 
[V:2] Bcd4e2- | 
[V:3] G,4F,2G,2- | 
[V:1] z8 | 
[V:2] edc4=B2 | 
[V:3] G,2F,E,D,4 | 
[V:1] G8 | 
[V:2] c8 | 
[V:3] C,4z4 | 
[V:1] F4G4- | 
[V:2] z4c4 | 
[V:3] D,4C,2E,2- | 
[V:1] G2F2E4 | 
[V:2] B4c4 | 
[V:3] E,2D,2C,4 | 
[V:1] D3EF2G2- | 
[V:2] G2d4c2 | 
[V:3] z2B,,4E,2- | 
[V:1] G2FED4 | 
[V:2] B2c4B2 | 
[V:3] E,2C,2G,4 | 
[V:1] z4E4- | 
[V:2] e3fg4 | 
[V:3] C,8- | 
[V:1] E2F2G4 | 
[V:2] c4z2e2- | 
[V:3] C,8 | 
[V:1] C4z2G2 | 
[V:2] efg4fe | 
[V:3] z4C4 | 
[V:1] A2c4B2 | 
[V:2] f4g4 | 
[V:3] A,4G,4 | 
[V:1] c4d4 | 
[V:2] c4B4 | 
[V:3] F,4z4 | 
[V:1] G4d4- | 
[V:2] e4f4 | 
[V:3] C4B,4- | 
[V:1] d2cBe4- | 
[V:2] g8- | 
[V:3] B,2G,2C4- | 
[V:1] e2d2d4- | 
[V:2] g4f4- | 
[V:3] C2G,2B,4- | 
[V:1] d2c2c4- | 
[V:2] f4e4 | 
[V:3] B,4C4 | 
[V:1] c2=BA=B4 | 
[V:2] d8 | 
[V:3] G,8 | 
[V:1] c8 | 
[V:2] z4c4 | 
[V:3] _A,6B,2 | 
[V:1] z4G4 | 
[V:2] e4e4 | 
[V:3] C8 | 
[V:1] B4B4 | 
[V:2] d4e4 | 
[V:3] G,4E,4 | 
[V:1] A4B4 | 
[V:2] c2d4G2- | 
[V:3] F,4B,,2E,2- | 
[V:1] G4F2G2- | 
[V:2] GABcd2e2- | 
[V:3] E,4D,2C,2- | 
[V:1] G2FED2C2 | 
[V:2] e2dcB2c2- | 
[V:3] C,4G,2_A,2 | 
[V:1] D2G3FE2 | 
[V:2] c=B=BAc4 | 
[V:3] G,4C,4 | 
[V:1] D2E4DC | 
[V:2] B2G2c4 | 
[V:3] G,4_A,4 | 
[V:1] !fermata!B,16 | 
[V:2] !fermata!d16 | 
[V:3] !fermata!G,16 | 
[V:1] z8 | 
[V:2] c4B2A2- | 
[V:3] _A,4G,2C2- | 
[V:1] z8 | 
[V:2] AGG4^F2 | 
[V:3] C2B,2A,3G, | 
[V:1] D4E2F2- | 
[V:2] G2B2c2d2- | 
[V:3] G,3F,E,2D,2- | 
[V:1] FDG4^F2 | 
[V:2] d2cBA4 | 
[V:3] D,2D4C2 | 
[V:1] G2B3Ac2- | 
[V:2] G2g4fe | 
[V:3] B,2G,2z2C,2 | 
[V:1] c2=B2c4 | 
[V:2] d4c3d | 
[V:3] G,4C,4 | 
[V:1] z4c4 | 
[V:2] ede4dc | 
[V:3] G,4_A,4 | 
[V:1] d4d4 | 
[V:2] B4z2B2 | 
[V:3] G,4B,4 | 
[V:1] e4e4 | 
[V:2] c4c4 | 
[V:3] _A,8 | 
[V:1] d6B2 | 
[V:2] G8 | 
[V:3] B,8 | 
[V:1] c8 | 
[V:2] z4A4 | 
[V:3] F,4F,4 | 
[V:1] G3ABcB2- | 
[V:2] B3cded2- | 
[V:3] E,4z2G,2- | 
[V:1] B2AGG2^F2 | 
[V:2] d2cBA4 | 
[V:3] G,4D,4 | 
[V:1] G2FED2C2- | 
[V:2] G4z4 | 
[V:3] D4B,2E2- | 
[V:1] C2E2D4 | 
[V:2] z4G4 | 
[V:3] EDC4=B,2 | 
[V:1] C4G4 | 
[V:2] A4B4 | 
[V:3] C4z4 | 
[V:1] A4B4 | 
[V:2] c4G4 | 
[V:3] F,4E,2G,2 | 
[V:1] c4G3A | 
[V:2] A3Bcde2- | 
[V:3] F,4E,4 | 
[V:1] Bcd2e2f2- | 
[V:2] e2f2g2_a2- | 
[V:3] z2B,,2E,2D,2- | 
[V:1] fedce2d2- | 
[V:2] agfeg2f2- | 
[V:3] D,2F,2E,2B,2- | 
[V:1] d2c4=B2 | 
[V:2] f2e2d4 | 
[V:3] B,2C2G,4 | 
[V:1] c8 |]  
[V:2] c8 |]  
[V:3] C,8 |]  
